X: 19295
T: J.B., The
R: reel
M: 4/4
K: Gdorian
|:Bddc BGGF|DGGA Bcdc|Bcdc BGGe|fF F/F/F AFcA|
Bcdc BGGF|DGGA Bcde|f2cf egce|facf AFFA:|
|:Ggga bagf|dBBc BcdB|Ggga b2ab|c'bag fFAF|
Ggga bagb|agfe fac'a|gabg fdcB|ABcd BG G/G/G:|

